X:1
T:The House Down in Carne
M:3/4
L:1/4
K:F
 D3/4 D/4| D A A| A G A| F D D| D2 E/2D/2| C D E| G A G| G E D| C2 z/2 d/2|\
 d e d| c A G| G A c| d2 d| d c d| A G A| E D E| D2 F/2G/2| A3| A2G/2-E/2|\
 C3-| C2 C/2C/2| C/2 D/2- D E| A/2 G/2- G E| E D C| D3-| D2||
